X:42
T:The Day Before the Revolution
F:Revolution
R:jig
C:Simon Dew
M:6/8
L:1/8
Q:3/8=130
K:G
P:A
"G"g2d Bcd|"C"e2c- c2"D7sus4"A-|A2d ded|cBA B2G|
"G"g2d Bcd|"C"e2c- c2"D7sus4"A-|A2d ded|1 cBA G3:|2 cBA G2D|
P:B
|:"Em"E2G c2B|"Am7"A2G- G2"D7sus4"B-|B2A- A3-|A2D FGA|
[1 "Em"E2G c2B|"Am7"A2G- G2"D7sus4"D-|D3- D3-|D3- D2D:|
[2 "Em"E2G c2B|"Am7"A2G- G2"D7sus4"d-|d3- d3-|d3- d3|

